Newaita-dark/apps/24/com.github.torikulhabib.mindi.svg

<svg height="24pt" viewBox="0 0 24 24" width="24pt" xmlns="http://www.w3.org/2000/svg" xmlns:xlink="http://www.w3.org/1999/xlink"><linearGradient id="a"><stop offset="0" stop-opacity=".313725"/><stop offset=".222222" stop-opacity=".27451"/><stop offset="1" stop-opacity="0"/></linearGradient><radialGradient id="b" cx="450.90894" cy="189.57936" gradientTransform="matrix(.00000013 -.0585994 -.105479 -.00000008 24.957966 47.696501)" gradientUnits="userSpaceOnUse" r="21.166656" xlink:href="#a"/><radialGradient id="c" cx="450.90894" cy="189.57936" gradientTransform="matrix(-.00000013 .0585994 .105479 .00000008 -14.538999 -5.645609)" gradientUnits="userSpaceOnUse" r="21.166656" xlink:href="#a"/><radialGradient id="d" cx="450.90894" cy="189.57936" gradientTransform="matrix(-.00000013 -.0585994 .105479 -.00000008 -14.538999 47.696501)" gradientUnits="userSpaceOnUse" r="21.166656" xlink:href="#a"/><radialGradient id="e" cx="450.90894" cy="189.57936" gradientTransform="matrix(.00000013 .0585994 -.105479 .00000008 24.957964 -5.645609)" gradientUnits="userSpaceOnUse" r="21.166656" xlink:href="#a"/><linearGradient id="f" gradientUnits="userSpaceOnUse" x1="11.907393" x2="11.907393" y1="21.02545025" y2="2.17207784373"><stop offset="0" stop-color="#9ccc65"/><stop offset="1" stop-color="#aed581"/></linearGradient><linearGradient id="g" gradientUnits="userSpaceOnUse" x1="9.59051304122" x2="9.59051304122" y1="16.47981385111" y2="7.58636691352"><stop offset="0" stop-color="#424242"/><stop offset="1" stop-color="#616161"/></linearGradient><path d="m5.210938 21.027344h1.984374v-.996094h-1.984374zm0 0" fill="url(#b)"/><path d="m5.210938 21.027344h-1.984376v.992187h1.984376zm0 0" fill="url(#c)"/><path d="m5.210938 21.027344h-1.984376v-.996094h1.984376zm0 0" fill="url(#d)"/><path d="m5.210938 21.027344h1.984374v.992187h-1.984374zm0 0" fill="url(#e)"/><path d="m5.460938 2.171875c-.0625 0-.128907.003906-.195313.011719-.007813 0-.019531.003906-.03125.003906-.003906 0-.007813.003906-.011719.003906-.007812 0-.011718 0-.015625 0-.644531.109375-1.148437.632813-1.226562 1.285156 0 .011719-.003907.023438-.003907.03125-.007812.0625-.007812.125-.007812.1875v15.839844.011719c-.007812.265625.058594.535156.199219.78125.414062.714844 1.320312.957031 2.035156.546875l13.75-7.9375c.484375-.28125.753906-.792969.746094-1.3125.007812-.523438-.261719-1.035156-.746094-1.3125l-13.691406-7.90625c-.164063-.105469-.347657-.179688-.546875-.210938-.011719-.003906-.023438-.003906-.035156-.007812-.070313-.011719-.144532-.015625-.21875-.015625zm0 0" fill="url(#f)"/><path d="m5.460938 2.171875c-.0625 0-.128907.003906-.195313.011719-.007813 0-.019531.003906-.03125.003906-.003906 0-.007813.003906-.011719.003906-.007812 0-.011718 0-.015625 0-.644531.109375-1.148437.632813-1.226562 1.285156 0 .011719-.003907.023438-.003907.03125-.007812.0625-.007812.125-.007812.1875v.1875c0-.042968.003906-.082031.007812-.125 0-.011718.003907-.019531.003907-.03125.078125-.65625.582031-1.175781 1.226562-1.285156.003907 0 .007813 0 .015625-.003906h.011719c.011719-.003906.023437-.003906.03125-.003906.066406-.007813.132813-.011719.195313-.011719.074218 0 .148437.003906.21875.015625.011718 0 .023437.003906.035156.003906.199218.035156.382812.109375.546875.214844l13.691406 7.902344c.445313.257812.707031.710937.742187 1.1875 0-.039063.003907-.082032.003907-.121094.007812-.523438-.261719-1.035156-.746094-1.3125l-13.691406-7.90625c-.164063-.105469-.347657-.179688-.546875-.210938-.011719-.003906-.023438-.003906-.035156-.007812-.070313-.011719-.144532-.015625-.21875-.015625zm-1.492188 17.386719v.050781zm0 0" fill="#fff" fill-opacity=".392157"/><path d="m3.96875 3.636719v.058593zm16.714844 7.761719c-.058594.441406-.316406.851562-.730469 1.089843l-13.75 7.9375c-.714844.414063-1.621094.171875-2.035156-.542969-.128907-.230468-.195313-.476562-.199219-.71875v.371094.011719c-.007812.265625.058594.535156.199219.78125.414062.714844 1.320312.957031 2.035156.546875l13.75-7.9375c.484375-.28125.753906-.792969.746094-1.3125 0-.078125-.003907-.152344-.015625-.226562zm-16.714844 7.691406v.023437c0-.007812 0-.011719 0-.015625s0-.003906 0-.007812zm0 0" fill-opacity=".235294"/><path d="m5.460938 2.101562c-.066407 0-.136719.003907-.203126.011719-.011718.003907-.019531.003907-.03125.003907-.007812.003906-.011718.003906-.015624.003906-.003907 0-.011719 0-.015626.003906-.675781.113281-1.203124.660156-1.285156 1.34375 0 .011719-.003906.023438-.003906.03125-.007812.066406-.007812.132812-.007812.199219v-.003907 15.839844.007813c-.007813.28125.0625.5625.210937.820312.429687.75 1.382813 1.003907 2.128906.574219l13.75-7.941406c.507813-.292969.789063-.824219.777344-1.371094.011719-.546875-.269531-1.082031-.777344-1.375l-13.6875-7.902344c-.171875-.109375-.367187-.1875-.574219-.222656-.011718-.003906-.023437-.003906-.035156-.007812v.003906c-.074218-.011719-.152344-.019532-.230468-.019532zm0 .140626c.070312 0 .140624.003906.210937.015624.007813 0 .019531.003907.03125.003907.1875.035156.363281.105469.519531.203125h.003906l13.691407 7.90625c.460937.269531.71875.753906.710937 1.25v.003906c.007813.496094-.25.984375-.710937 1.25l-13.75 7.9375c-.683594.394531-1.542969.164062-1.9375-.519531-.136719-.234375-.199219-.492188-.191407-.746094 0-.003906 0-.007813 0-.011719v-15.839844c0-.058593 0-.121093.007813-.179687 0-.007813 0-.019531.003906-.027344.074219-.625.550781-1.121093 1.167969-1.226562h.015625c.003906-.003907.007813-.003907.011719-.003907.011718 0 .019531-.003906.03125-.003906.058594-.007812.121094-.011718.183594-.011718zm0 0" fill="#212121"/><path d="m8.1875 7.585938c-.308594 0-.554688.289062-.554688.644531v5.527343c-.171874-.050781-.359374-.078124-.554687-.078124-.917969 0-1.660156.617187-1.660156 1.382812s.742187 1.382812 1.660156 1.382812c.921875 0 1.660156-.617187 1.660156-1.382812v-6.089844c0-.15625.125-.277344.277344-.277344h2.769531c.152344 0 .277344.121094.277344.277344v3.121094c-.171875-.050781-.359375-.078125-.554688-.078125-.917968 0-1.660156.617187-1.660156 1.386719 0 .765625.742188 1.382812 1.660156 1.382812.921876 0 1.664063-.617187 1.664063-1.382812v-5.171875c0-.355469-.25-.644531-.554687-.644531zm0 0" fill="url(#g)"/><path d="m8.1875 7.585938c-.308594 0-.554688.289062-.554688.644531v.25c0-.359375.246094-.644531.554688-.644531h4.429688c.304687 0 .554687.285156.554687.644531v-.25c0-.355469-.25-.644531-.554687-.644531zm3.320312 4.429687c-.917968 0-1.660156.617187-1.660156 1.386719 0 .039062.003906.082031.007813.121094.074219-.707032.785156-1.257813 1.652343-1.257813.195313 0 .382813.027344.554688.078125v-.25c-.171875-.050781-.359375-.078125-.554688-.078125zm-4.429687 1.664063c-.917969 0-1.660156.617187-1.660156 1.382812 0 .042969 0 .082031.007812.125.074219-.710938.78125-1.261719 1.652344-1.261719.195313 0 .382813.027344.554687.078125v-.246094c-.171874-.050781-.359374-.078124-.554687-.078124zm0 0" fill="#fff" fill-opacity=".392157"/><path d="m9.015625 8.695312c-.152344 0-.277344.121094-.277344.277344v.371094c0-.152344.125-.277344.277344-.277344h2.769531c.152344 0 .277344.125.277344.277344v-.371094c0-.15625-.125-.277344-.277344-.277344zm4.15625 4.707032c0 .765625-.742187 1.382812-1.664063 1.382812-.84375 0-1.535156-.519531-1.644531-1.199218-.011719.0625-.015625.125-.015625.1875 0 .765624.742188 1.382812 1.660156 1.382812.921876 0 1.664063-.617188 1.664063-1.382812zm-4.433594 1.660156c0 .765625-.738281 1.382812-1.660156 1.382812-.84375 0-1.539063-.519531-1.644531-1.195312-.011719.058594-.015625.121094-.015625.183594 0 .769531.742187 1.386718 1.660156 1.386718.921875 0 1.660156-.617187 1.660156-1.386718zm0 0" fill-opacity=".235294"/><path d="m174.649988-53.18212c-6.582704 0-11.832203 6.166078-11.832203 13.748688v117.905407c-3.666317-1.08323-7.665935-1.666508-11.832203-1.666508-19.581464 0-35.413285 13.16541-35.413285 29.497183 0 16.331774 15.831821 29.497184 35.413285 29.497184 19.664788 0 35.413284-13.16541 35.413284-29.497184v-129.904261c0-3.333015 2.666413-5.916102 5.916102-5.916102h59.077692c3.24969 0 5.916102 2.583087 5.916102 5.916102v66.576976c-3.666317-1.08323-7.665935-1.666508-11.832204-1.666508-19.581463 0-35.413285 13.165409-35.413285 29.580509 0 16.331773 15.831822 29.497183 35.413285 29.497183 19.664789 0 35.49661-13.16541 35.49661-29.497183v-110.322798c0-7.58261-5.332824-13.748688-11.832203-13.748688zm0 0" fill="none" stroke="#212121" stroke-linecap="round" stroke-width="3" transform="matrix(.0468795 0 0 .0468795 0 10.079087)"/></svg>

<?xml version="1.0" encoding="UTF-8"?>
<svg xmlns="http://www.w3.org/2000/svg" xmlns:xlink="http://www.w3.org/1999/xlink" width="24pt" height="24pt" viewBox="0 0 24 24" version="1.1">
<defs>
<radialGradient id="radial0" gradientUnits="userSpaceOnUse" cx="450.90894" cy="189.57936" fx="450.90894" fy="189.57936" r="21.166656" gradientTransform="matrix(0.000000130628,-0.0585994,-0.105479,-0.0000000761539,24.957966,47.696501)">
<stop offset="0" style="stop-color:rgb(0%,0%,0%);stop-opacity:0.313725;"/>
<stop offset="0.222222" style="stop-color:rgb(0%,0%,0%);stop-opacity:0.27451;"/>
<stop offset="1" style="stop-color:rgb(0%,0%,0%);stop-opacity:0;"/>
</radialGradient>
<radialGradient id="radial1" gradientUnits="userSpaceOnUse" cx="450.90894" cy="189.57936" fx="450.90894" fy="189.57936" r="21.166656" gradientTransform="matrix(-0.000000130628,0.0585994,0.105479,0.0000000761539,-14.538999,-5.645609)">
<stop offset="0" style="stop-color:rgb(0%,0%,0%);stop-opacity:0.313725;"/>
<stop offset="0.222222" style="stop-color:rgb(0%,0%,0%);stop-opacity:0.27451;"/>
<stop offset="1" style="stop-color:rgb(0%,0%,0%);stop-opacity:0;"/>
</radialGradient>
<radialGradient id="radial2" gradientUnits="userSpaceOnUse" cx="450.90894" cy="189.57936" fx="450.90894" fy="189.57936" r="21.166656" gradientTransform="matrix(-0.000000130628,-0.0585994,0.105479,-0.0000000761539,-14.538999,47.696501)">
<stop offset="0" style="stop-color:rgb(0%,0%,0%);stop-opacity:0.313725;"/>
<stop offset="0.222222" style="stop-color:rgb(0%,0%,0%);stop-opacity:0.27451;"/>
<stop offset="1" style="stop-color:rgb(0%,0%,0%);stop-opacity:0;"/>
</radialGradient>
<radialGradient id="radial3" gradientUnits="userSpaceOnUse" cx="450.90894" cy="189.57936" fx="450.90894" fy="189.57936" r="21.166656" gradientTransform="matrix(0.000000130628,0.0585994,-0.105479,0.0000000761539,24.957964,-5.645609)">
<stop offset="0" style="stop-color:rgb(0%,0%,0%);stop-opacity:0.313725;"/>
<stop offset="0.222222" style="stop-color:rgb(0%,0%,0%);stop-opacity:0.27451;"/>
<stop offset="1" style="stop-color:rgb(0%,0%,0%);stop-opacity:0;"/>
</radialGradient>
<linearGradient id="linear0" gradientUnits="userSpaceOnUse" x1="254" y1="233.5" x2="254" y2="-168.66667" gradientTransform="matrix(0.0468795,0,0,0.0468795,0,10.079087)">
<stop offset="0" style="stop-color:rgb(61.176471%,80%,39.607843%);stop-opacity:1;"/>
<stop offset="1" style="stop-color:rgb(68.235294%,83.529412%,50.588235%);stop-opacity:1;"/>
</linearGradient>
<linearGradient id="linear1" gradientUnits="userSpaceOnUse" x1="981.43005" y1="1457.5077" x2="981.43005" y2="815.11719" gradientTransform="matrix(0.0138443,0,0,0.0138443,-3.996699,-3.69836)">
<stop offset="0" style="stop-color:rgb(25.882353%,25.882353%,25.882353%);stop-opacity:1;"/>
<stop offset="1" style="stop-color:rgb(38.039216%,38.039216%,38.039216%);stop-opacity:1;"/>
</linearGradient>
</defs>
<g id="surface1">
<path style=" stroke:none;fill-rule:nonzero;fill:url(#radial0);" d="M 5.210938 21.027344 L 7.195312 21.027344 L 7.195312 20.03125 L 5.210938 20.03125 Z M 5.210938 21.027344 "/>
<path style=" stroke:none;fill-rule:nonzero;fill:url(#radial1);" d="M 5.210938 21.027344 L 3.226562 21.027344 L 3.226562 22.019531 L 5.210938 22.019531 Z M 5.210938 21.027344 "/>
<path style=" stroke:none;fill-rule:nonzero;fill:url(#radial2);" d="M 5.210938 21.027344 L 3.226562 21.027344 L 3.226562 20.03125 L 5.210938 20.03125 Z M 5.210938 21.027344 "/>
<path style=" stroke:none;fill-rule:nonzero;fill:url(#radial3);" d="M 5.210938 21.027344 L 7.195312 21.027344 L 7.195312 22.019531 L 5.210938 22.019531 Z M 5.210938 21.027344 "/>
<path style=" stroke:none;fill-rule:nonzero;fill:url(#linear0);" d="M 5.460938 2.171875 C 5.398438 2.171875 5.332031 2.175781 5.265625 2.183594 C 5.257812 2.183594 5.246094 2.1875 5.234375 2.1875 C 5.230469 2.1875 5.226562 2.191406 5.222656 2.191406 C 5.214844 2.191406 5.210938 2.191406 5.207031 2.191406 C 4.5625 2.300781 4.058594 2.824219 3.980469 3.476562 C 3.980469 3.488281 3.976562 3.5 3.976562 3.507812 C 3.96875 3.570312 3.96875 3.632812 3.96875 3.695312 L 3.96875 19.535156 C 3.96875 19.539062 3.96875 19.542969 3.96875 19.546875 C 3.960938 19.8125 4.027344 20.082031 4.167969 20.328125 C 4.582031 21.042969 5.488281 21.285156 6.203125 20.875 L 19.953125 12.9375 C 20.4375 12.65625 20.707031 12.144531 20.699219 11.625 C 20.707031 11.101562 20.4375 10.589844 19.953125 10.3125 L 6.261719 2.40625 C 6.097656 2.300781 5.914062 2.226562 5.714844 2.195312 C 5.703125 2.191406 5.691406 2.191406 5.679688 2.1875 C 5.609375 2.175781 5.535156 2.171875 5.460938 2.171875 Z M 5.460938 2.171875 "/>
<path style=" stroke:none;fill-rule:nonzero;fill:rgb(100%,100%,100%);fill-opacity:0.392157;" d="M 5.460938 2.171875 C 5.398438 2.171875 5.332031 2.175781 5.265625 2.183594 C 5.257812 2.183594 5.246094 2.1875 5.234375 2.1875 C 5.230469 2.1875 5.226562 2.191406 5.222656 2.191406 C 5.214844 2.191406 5.210938 2.191406 5.207031 2.191406 C 4.5625 2.300781 4.058594 2.824219 3.980469 3.476562 C 3.980469 3.488281 3.976562 3.5 3.976562 3.507812 C 3.96875 3.570312 3.96875 3.632812 3.96875 3.695312 L 3.96875 3.882812 C 3.96875 3.839844 3.972656 3.800781 3.976562 3.757812 C 3.976562 3.746094 3.980469 3.738281 3.980469 3.726562 C 4.058594 3.070312 4.5625 2.550781 5.207031 2.441406 C 5.210938 2.441406 5.214844 2.441406 5.222656 2.4375 C 5.226562 2.4375 5.230469 2.4375 5.234375 2.4375 C 5.246094 2.433594 5.257812 2.433594 5.265625 2.433594 C 5.332031 2.425781 5.398438 2.421875 5.460938 2.421875 C 5.535156 2.421875 5.609375 2.425781 5.679688 2.4375 C 5.691406 2.4375 5.703125 2.441406 5.714844 2.441406 C 5.914062 2.476562 6.097656 2.550781 6.261719 2.65625 L 19.953125 10.558594 C 20.398438 10.816406 20.660156 11.269531 20.695312 11.746094 C 20.695312 11.707031 20.699219 11.664062 20.699219 11.625 C 20.707031 11.101562 20.4375 10.589844 19.953125 10.3125 L 6.261719 2.40625 C 6.097656 2.300781 5.914062 2.226562 5.714844 2.195312 C 5.703125 2.191406 5.691406 2.191406 5.679688 2.1875 C 5.609375 2.175781 5.535156 2.171875 5.460938 2.171875 Z M 3.96875 19.558594 C 3.96875 19.578125 3.96875 19.59375 3.96875 19.609375 Z M 3.96875 19.558594 "/>
<path style=" stroke:none;fill-rule:nonzero;fill:rgb(0%,0%,0%);fill-opacity:0.235294;" d="M 3.96875 3.636719 C 3.96875 3.65625 3.96875 3.675781 3.96875 3.695312 Z M 20.683594 11.398438 C 20.625 11.839844 20.367188 12.25 19.953125 12.488281 L 6.203125 20.425781 C 5.488281 20.839844 4.582031 20.597656 4.167969 19.882812 C 4.039062 19.652344 3.972656 19.40625 3.96875 19.164062 L 3.96875 19.535156 C 3.96875 19.539062 3.96875 19.542969 3.96875 19.546875 C 3.960938 19.8125 4.027344 20.082031 4.167969 20.328125 C 4.582031 21.042969 5.488281 21.285156 6.203125 20.875 L 19.953125 12.9375 C 20.4375 12.65625 20.707031 12.144531 20.699219 11.625 C 20.699219 11.546875 20.695312 11.472656 20.683594 11.398438 Z M 3.96875 19.089844 L 3.96875 19.113281 C 3.96875 19.105469 3.96875 19.101562 3.96875 19.097656 C 3.96875 19.09375 3.96875 19.09375 3.96875 19.089844 Z M 3.96875 19.089844 "/>
<path style=" stroke:none;fill-rule:nonzero;fill:rgb(12.941176%,12.941176%,12.941176%);fill-opacity:1;" d="M 5.460938 2.101562 C 5.394531 2.101562 5.324219 2.105469 5.257812 2.113281 C 5.246094 2.117188 5.238281 2.117188 5.226562 2.117188 C 5.21875 2.121094 5.214844 2.121094 5.210938 2.121094 C 5.207031 2.121094 5.199219 2.121094 5.195312 2.125 C 4.519531 2.238281 3.992188 2.785156 3.910156 3.46875 C 3.910156 3.480469 3.90625 3.492188 3.90625 3.5 C 3.898438 3.566406 3.898438 3.632812 3.898438 3.699219 L 3.898438 3.695312 L 3.898438 19.535156 C 3.898438 19.539062 3.898438 19.542969 3.898438 19.542969 C 3.890625 19.824219 3.960938 20.105469 4.109375 20.363281 C 4.539062 21.113281 5.492188 21.367188 6.238281 20.9375 L 19.988281 12.996094 C 20.496094 12.703125 20.777344 12.171875 20.765625 11.625 C 20.777344 11.078125 20.496094 10.542969 19.988281 10.25 L 6.300781 2.347656 C 6.128906 2.238281 5.933594 2.160156 5.726562 2.125 C 5.714844 2.121094 5.703125 2.121094 5.691406 2.117188 L 5.691406 2.121094 C 5.617188 2.109375 5.539062 2.101562 5.460938 2.101562 Z M 5.460938 2.242188 C 5.53125 2.242188 5.601562 2.246094 5.671875 2.257812 C 5.679688 2.257812 5.691406 2.261719 5.703125 2.261719 C 5.890625 2.296875 6.066406 2.367188 6.222656 2.464844 L 6.226562 2.464844 L 19.917969 10.371094 C 20.378906 10.640625 20.636719 11.125 20.628906 11.621094 L 20.628906 11.625 C 20.636719 12.121094 20.378906 12.609375 19.917969 12.875 L 6.167969 20.8125 C 5.484375 21.207031 4.625 20.976562 4.230469 20.292969 C 4.09375 20.058594 4.03125 19.800781 4.039062 19.546875 C 4.039062 19.542969 4.039062 19.539062 4.039062 19.535156 L 4.039062 3.695312 C 4.039062 3.636719 4.039062 3.574219 4.046875 3.515625 C 4.046875 3.507812 4.046875 3.496094 4.050781 3.488281 C 4.125 2.863281 4.601562 2.367188 5.21875 2.261719 C 5.222656 2.261719 5.226562 2.261719 5.234375 2.261719 C 5.238281 2.257812 5.242188 2.257812 5.246094 2.257812 C 5.257812 2.257812 5.265625 2.253906 5.277344 2.253906 C 5.335938 2.246094 5.398438 2.242188 5.460938 2.242188 Z M 5.460938 2.242188 "/>
<path style=" stroke:none;fill-rule:nonzero;fill:url(#linear1);" d="M 8.1875 7.585938 C 7.878906 7.585938 7.632812 7.875 7.632812 8.230469 L 7.632812 13.757812 C 7.460938 13.707031 7.273438 13.679688 7.078125 13.679688 C 6.160156 13.679688 5.417969 14.296875 5.417969 15.0625 C 5.417969 15.828125 6.160156 16.445312 7.078125 16.445312 C 8 16.445312 8.738281 15.828125 8.738281 15.0625 L 8.738281 8.972656 C 8.738281 8.816406 8.863281 8.695312 9.015625 8.695312 L 11.785156 8.695312 C 11.9375 8.695312 12.0625 8.816406 12.0625 8.972656 L 12.0625 12.09375 C 11.890625 12.042969 11.703125 12.015625 11.507812 12.015625 C 10.589844 12.015625 9.847656 12.632812 9.847656 13.402344 C 9.847656 14.167969 10.589844 14.785156 11.507812 14.785156 C 12.429688 14.785156 13.171875 14.167969 13.171875 13.402344 L 13.171875 8.230469 C 13.171875 7.875 12.921875 7.585938 12.617188 7.585938 Z M 8.1875 7.585938 "/>
<path style=" stroke:none;fill-rule:nonzero;fill:rgb(100%,100%,100%);fill-opacity:0.392157;" d="M 8.1875 7.585938 C 7.878906 7.585938 7.632812 7.875 7.632812 8.230469 L 7.632812 8.480469 C 7.632812 8.121094 7.878906 7.835938 8.1875 7.835938 L 12.617188 7.835938 C 12.921875 7.835938 13.171875 8.121094 13.171875 8.480469 L 13.171875 8.230469 C 13.171875 7.875 12.921875 7.585938 12.617188 7.585938 Z M 11.507812 12.015625 C 10.589844 12.015625 9.847656 12.632812 9.847656 13.402344 C 9.847656 13.441406 9.851562 13.484375 9.855469 13.523438 C 9.929688 12.816406 10.640625 12.265625 11.507812 12.265625 C 11.703125 12.265625 11.890625 12.292969 12.0625 12.34375 L 12.0625 12.09375 C 11.890625 12.042969 11.703125 12.015625 11.507812 12.015625 Z M 7.078125 13.679688 C 6.160156 13.679688 5.417969 14.296875 5.417969 15.0625 C 5.417969 15.105469 5.417969 15.144531 5.425781 15.1875 C 5.5 14.476562 6.207031 13.925781 7.078125 13.925781 C 7.273438 13.925781 7.460938 13.953125 7.632812 14.003906 L 7.632812 13.757812 C 7.460938 13.707031 7.273438 13.679688 7.078125 13.679688 Z M 7.078125 13.679688 "/>
<path style=" stroke:none;fill-rule:nonzero;fill:rgb(0%,0%,0%);fill-opacity:0.235294;" d="M 9.015625 8.695312 C 8.863281 8.695312 8.738281 8.816406 8.738281 8.972656 L 8.738281 9.34375 C 8.738281 9.191406 8.863281 9.066406 9.015625 9.066406 L 11.785156 9.066406 C 11.9375 9.066406 12.0625 9.191406 12.0625 9.34375 L 12.0625 8.972656 C 12.0625 8.816406 11.9375 8.695312 11.785156 8.695312 Z M 13.171875 13.402344 C 13.171875 14.167969 12.429688 14.785156 11.507812 14.785156 C 10.664062 14.785156 9.972656 14.265625 9.863281 13.585938 C 9.851562 13.648438 9.847656 13.710938 9.847656 13.773438 C 9.847656 14.539062 10.589844 15.15625 11.507812 15.15625 C 12.429688 15.15625 13.171875 14.539062 13.171875 13.773438 Z M 8.738281 15.0625 C 8.738281 15.828125 8 16.445312 7.078125 16.445312 C 6.234375 16.445312 5.539062 15.925781 5.433594 15.25 C 5.421875 15.308594 5.417969 15.371094 5.417969 15.433594 C 5.417969 16.203125 6.160156 16.820312 7.078125 16.820312 C 8 16.820312 8.738281 16.203125 8.738281 15.433594 Z M 8.738281 15.0625 "/>
<path style="fill:none;stroke-width:3;stroke-linecap:round;stroke-linejoin:miter;stroke:rgb(12.941176%,12.941176%,12.941176%);stroke-opacity:1;stroke-miterlimit:4;" d="M 174.649988 -53.18212 C 168.067284 -53.18212 162.817785 -47.016042 162.817785 -39.433432 L 162.817785 78.471975 C 159.151468 77.388745 155.15185 76.805467 150.985582 76.805467 C 131.404118 76.805467 115.572297 89.970877 115.572297 106.30265 C 115.572297 122.634424 131.404118 135.799834 150.985582 135.799834 C 170.65037 135.799834 186.398866 122.634424 186.398866 106.30265 L 186.398866 -23.601611 C 186.398866 -26.934626 189.065279 -29.517713 192.314968 -29.517713 L 251.39266 -29.517713 C 254.64235 -29.517713 257.308762 -26.934626 257.308762 -23.601611 L 257.308762 42.975365 C 253.642445 41.892135 249.642827 41.308857 245.476558 41.308857 C 225.895095 41.308857 210.063273 54.474266 210.063273 70.889366 C 210.063273 87.221139 225.895095 100.386549 245.476558 100.386549 C 265.141347 100.386549 280.973168 87.221139 280.973168 70.889366 L 280.973168 -39.433432 C 280.973168 -47.016042 275.640344 -53.18212 269.140965 -53.18212 Z M 174.649988 -53.18212 " transform="matrix(0.0468795,0,0,0.0468795,0,10.079087)"/>
</g>
</svg>
